build/security/KeySolid.svg

<svg xmlns="http://www.w3.org/2000/svg" fill="none" viewBox="0 0 24 24" focusable="false"><path d="M0 0H24V24H0z"/><path fill="#74767B" fill-rule="evenodd" d="M12.4085 3.55892C11.2369 2.38734 9.33745 2.38734 8.16588 3.55892L3.92324 7.80156C2.75166 8.97313 2.75166 10.8726 3.92324 12.0442L6.04456 14.1655C7.21613 15.3371 9.11562 15.3371 10.2872 14.1655L10.6202 13.8325L17.3072 20.5194C17.5581 20.7704 17.8751 20.9449 18.2212 21.0229C19.2115 21.246 20.1996 20.6408 20.4508 19.6573L20.6114 19.0284C20.8336 18.1584 20.5807 17.2357 19.9458 16.6007L19.6016 16.2563C19.3578 16.0124 19.027 15.8754 18.6822 15.8754L18.0749 15.8754C17.7398 15.8754 17.4517 15.6379 17.3877 15.309L16.9994 13.3119C16.9492 13.0537 16.8218 12.8168 16.6341 12.6325L14.2052 10.2475L14.5298 9.92288C15.7014 8.7513 15.7014 6.85181 14.5298 5.68024L12.4085 3.55892ZM10.5317 7.76916C10.7856 7.51532 10.7856 7.10377 10.5317 6.84993C10.2779 6.59608 9.86633 6.59608 9.61249 6.84993L7.25358 9.20883C6.99974 9.46268 6.99974 9.87423 7.25358 10.1281C7.50742 10.3819 7.91898 10.3819 8.17282 10.1281L10.5317 7.76916Z"/></svg>

<svg xmlns="http://www.w3.org/2000/svg" fill="none" viewBox="0 0 24 24" focusable="false"><path fill="#74767B" fill-rule="evenodd" d="M12.4 3.55a3 3 0 0 0-4.24 0L3.92 7.8a3 3 0 0 0 0 4.24l2.12 2.12a3 3 0 0 0 4.24 0l.34-.33 6.68 6.68c.25.26.57.43.92.51.99.22 1.97-.38 2.23-1.37l.16-.63c.22-.87-.03-1.79-.67-2.42l-.34-.35c-.25-.24-.58-.38-.92-.38h-.61c-.34 0-.62-.24-.69-.57l-.39-1.99c-.05-.26-.17-.5-.36-.68l-2.43-2.39.32-.32a2.98 2.98 0 0 0 0-4.24zm-1.87 4.21c.25-.25.25-.66 0-.92a.66.66 0 0 0-.92 0L7.25 9.2a.64.64 0 0 0 0 .92c.25.26.66.26.92 0z"/></svg>
